X: 27669
T: Morfa
R: reel
M: 4/4
K: Dmajor
|:D2FA dAFA|~B2AB BAFE|D2FA dAFA|EDEF EDB,A,|
D2FA dAFA|~B2AB BAFE|D2FA dAFA|1 EDEF D2 FE:|2 EDEF D2 AB||
dBAB a2fd|e2de f2de|f2f2 edB2|A2FA B2AB|
d2d2 f2ed|~e2de fede|~f2f2 edB2|AFEF D2 fe|
dBAB gfed|~e2de f2de|f2f2 edB2|A2FA B2AB|
d2Bd fdBd|e2Be geBE|D2FA dAFA|EDEF D2 FE||

